X:1
T:Polyphonic Étude No. 4 in C Major
T:Polyphonic Étude No. 4 in C Major
T:Heinrich Wilhelm Ernst
C:Heinrich Wilhelm Ernst
%%score ( 1 2 )
L:1/8
Q:1/4=150
M:3/4
K:C
V:1 treble nm="Violin" snm="Vln."
V:2 treble 
V:1
"^Allegro risoluto"!mf!"^ten."!<(! (C/D/C/B,/ C/E/G/c/ e/g/c'/e'/)!<)! | %1
!>(! (g'/e'/c'/g/ e'/c'/g/e/ c/G/E/C/)!>)! |"^ten." (A,/B,/A,/^G,/!<(! A,/C/E/A/ c/e/a/c'/)!<)! | %3
!>(! (e'/c'/a/e/ c'/a/e/c/ A/E/C/A,/)!>)! |"^ten."!<(! (D/E/D/^C/ D/F/A/d/ f/a/d'/f'/)!<)! | %5
!>(! (a'/f'/d'/a/ f'/d'/a/f/ d/A/F/D/)!>)! |"^ten."!<(! G x x4!<)! | %7
!mf!!>(! (g/a/f/d/ B/f/d/B/ G/F/D/B,/)!>)! |!p!"^ten." (C/D/C/B,/"_cresc." C/E/G/c/ e/g/c'/e'/) | %9
 (g'/e'/c'/e'/ g'/e'/c'/e'/ ^g'/e'/c'/e'/) |!f! (a'2- a'/e'/c'/e'/ a/c'/e/a/) | %11
 (c/e/A/c/ E/A/C/E/ A,/C/E/A/) |"^ten." (D/E/D/^C/"_cresc." D/F/A/d/ f/a/d'/f'/) | %13
 (a'/f'/d'/f'/ a'/^f'/d'/f'/ ^a'/f'/d'/f'/) |!f! (b'2- b'/^f'/d'/f'/ b/d'/^f/b/) | %15
 (d/^f/B/d/ ^F/B/D/F/ B,/D/F/B/) |"^ten." (E/^F/E/^D/ E/G/B/e/ g/b/e'/g'/) | %17
 (b'/g'/e'/g'/ b'/g'/e'/g'/ b'/g'/e'/g'/) | (c''2- c''/g'/e'/g'/ c'/e'/g/c'/) | %19
 (e/g/c/e/ G/c/E/G/ C/E/G/c/) |!p! (^F/G/F/E/!<(! F/d/c'/a/!<)!!>(! ^f/d/c/A/)!>)! | %21
!<(! (G/A/_B/A/ G/_b/!<)!!>(!G/A/ B/G/E/^C/)!>)! | %22
!<(! (D/E/D/^C/ D/d/!<)!!>(!=c'/a/ ^f/d/c/A/)!>)! | (G/A/_B/A/ G/_b/G/A/ B/G/E/^C/) | %24
!p! (D/E/D/^C/"_cresc." D/^F/A/d/ ^f/a/d'/^f'/) | (a'/^f'/d'/a/ ^f/a/d'/f'/ a'/d'/f'/a'/ | %26
!f! d'') z [Ad^f'] z [^FAda'] z | [ad'] z D !fermata!z!p! (_E/D/E/D/ | %28
 C) z!ff! [CA^f_e'] z!p! (D/C/D/C/ | _B,) z!ff! [B,Gdd'] z!p! (C/B,/C/B,/ | %30
 A,) z!f! !^![^Fdc'] z !^![Gd_b] z | !^![D^fa] z !^![Dfd'] z!p!!<(! (_E/D/E/D/!<)! | %32
!p! C/A/^f/_e'/) (e'/f/A/C/ D/C/D/C/ | _B,/G/d/d'/)"_cresc." (d'/d/G/B,/ C/B,/C/B,/ | %34
 A,/^F/d/c'/) (c'/d/F/A,/ G,/G/d/)._b/ |!f! (D/A/^f/d'/) (d'/f/A/D/!pp! _E/D/E/D/ | %36
 C/A/=f/_e'/) (e'/f/A/C/ F/_E/D/C/ | _B,/F/d/d'/)"_cresc." (d'/d/F/B,/ C/D/_E/F/ | %38
 G/_e/_b/_b'/) (b'/b/e/G/ c/_B/A/G/ | F/d/_b/_b'/) (b'/b/d/F/!f! _B/A/G/F/ | %40
 _E/c/a/f'/) (f'/a/c/E/ A/G/F/E/ | D/_B/f/f'/) (f'/f/B/D/ G/F/"_dimin."_E/D/ | %42
 C/A/f/_e'/) (e'/f/A/C/ F/_E/D/C/ | _B,/F/d/d'/) (d'/d/F/B,/!<(! C/D/_E/F/!<)! | %44
!p! G/_e/_b/_b'/) (b'/b/e/G/ A/G/A/G/ | F/d/_b/_b'/) (b'/b/d/F/ _B/_A/G/^F/ | %46
 G/_e/_b/_b'/) (b'/b/e/G/ =A/G/A/G/ |"_cresc." F/d/_b/_b'/) (b'/b/d/F/ _B/A/G/F/ | %48
!f! E/_d/_b/g'/)"_cresc." (g'/b/d/E/ _B/A/G/F/) | (E/_d/_b/g'/) (g'/b/d/E/) (E/d/b/g'/) | %50
 (_b'/_d'/e/G/) (_B/g/e'/d''/)"_dim." (e''G,) | %51
!p!!<(! (_A,/_D/F/_A/ _d/f/_a/_d'/ f'/d'/_a'/f'/)!<)! | %52
!>(! (_a'/f'/_d'/_a/ f'/d'/a/f/ _d/_A/F/_D/)!>)! | %53
"^ten."!<(! (_A,/_D/_F/_A/ _d/_f/_a/_d'/ _f'/d'/_a'/f'/)!<)! | %54
!>(! (_a'/_f'/_d'/_a/ f'/d'/a/_f/ _d/_A/_F/_D/)!>)! | %55
!<(! (_A,/_D/_E/_A/ _d/_e/_a/_d'/ _e'/_a'/e'/d'/)!<)! | %56
!>(! (_a/_d'/a/_e/ _d/e/d/_A/ _E/A/E/_D/)!>)! |!<(! (_A,/C/_E/_G/ _A/c/_e/_g/ _a/c'/_e'/_g'/!<)! | %58
!>(! _b'/)(_a'/_g'/_e'/ c'/_a/_g/_e/ c/_A/_G/_E/)!>)! |!p! (_D/_A/f/_d'/) (d'/f/A/D/ _E/D/C/_B,/ | %60
 _A,/_E/c/_a/) (a/c/E/(A,/"^sul G" _A/)_G/F/E/ | _D/_A/f/_d'/) (d'/f/A/D/ _E/D/C/_B,/ | %62
 =A,/F/_e/f/) (f/e/F/(A,/!<(! F/)_E/_D/C/!<)! | _B,/F/_d/_d'/)"_cresc." (d'/d/F/B,/ F/_E/=D/C/ | %64
 =B,/G/f/g/) (g/f/G/B,/ G/F/_E/D/ | C/G/_e/c'/) (c'/e/G/C/) (_B,/G/=e/c'/) | %66
 (A,/F/c/f/) (f/c/F/A,/) (_A,/D/c/).^f/ |!f! (G,/D/B/g/) (g/B/D/G,/) (G,/G/f/).d'/ | %68
 (G,/G/e/d'/) (d'/e/G/G,/) (G,/^F/_e/).c'/ | (G,/G/d/b/) (b/d/G/G,/) (G,/G/d/).f'/ | %70
 (G,/G/d/e'/) (e'/d/G/G,/) (G,/^F/c/)._e'/ | %71
 (G,/D/B/d'/)!<(! (d'/B/D/G,/)!<)!!>(! (G,/^F/A/)._e'/!>)! | %72
 (G,/D/B/d'/)!<(! (d'/B/D/G,/)!<)!!>(! (G,/^F/A/)._e'/!>)! | %73
 (G,/G/B/d'/) (G,/G/c/e'/) (G,/G/A/c'/) | (G,/G/b/G/) (G,/A/c'/A/) (G,/F/a/F/) | %75
 (G,/E/c/g/)"_rit. e dim." (G,/E/^c/a/) (G,/_B/c/e/) | (G,/A/d/f/) (G,/_A/=c/d/) (G,/G/=B/g/) | %77
!f!"^a tempo"!<(! (C/D/C/B,/ C/E/G/c/ e/g/c'/e'/)!<)! |!>(! (g'/e'/c'/g/ e'/c'/g/e/ c/G/E/C/)!>)! | %79
"^ten." (A,/B,/A,/^G,/!<(! A,/C/E/A/ c/e/a/c'/)!<)! |!>(! (e'/c'/a/e/ c'/a/e/c/ A/E/C/A,/)!>)! | %81
"^ten."!<(! (D/E/D/^C/ D/F/A/d/ f/a/d'/f'/)!<)! |!>(! (a'/f'/d'/a/ f'/d'/a/f/ d/A/F/D/)!>)! | %83
"^ten."!<(! G x x4!<)! |!f!!>(! (g/a/f/d/ B/f/d/B/ G/F/D/B,/)!>)! | %85
!p!"^ten." (C/D/C/B,/ C/E/G/c/ e/g/c'/e'/) | (g'/e'/c'/e'/ g'/e'/c'/e'/ ^g'/e'/c'/e'/) | %87
!f! (a'2- a'/e'/c'/e'/ a/c'/e/a/) | (c/e/A/c/ E/A/C/E/ A,/C/E/A/) | %89
"^ten." (D/E/D/^C/"_cresc." D/F/A/d/ f/a/d'/f'/) | (a'/f'/d'/f'/ a'/^f'/d'/f'/ ^a'/f'/d'/f'/) | %91
!f! (b'2- b'/^f'/d'/f'/ b/d'/^f/b/) | (d/^f/B/d/ ^F/B/D/F/ B,/D/F/B/) | %93
"^ten." (E/^F/E/^D/ E/G/B/e/ g/b/e'/g'/) |!<(! (b'/g'/e'/g'/ b'/g'/e'/g'/ c''/g'/e'/c''/)!<)! | %95
!f! (c''2- c''/a'/f'/a'/ c'/f'/a/c'/) | (f/a/c/f/ A/c/F/A/ C/F/!>!_A,/F/) | %97
 (!>!G,/!<(!B,/D/F/ G/B/f/d/!<)!!>(! B/G/F/D/)!>)! |!f! (C/D/C/B,/ C/_e/C/D/ _E/D/E/C/) | %99
 (G/A/G/^F/ G/d/=f'/d'/ b/g/f/d/) | (c/d/c/B/ c/_e'/c/d/ _e/c/A/^F/) | %101
 (G/A/G/^F/ G/B/d/g/"_cresc." b/d'/g'/b'/) |!8va(! (d''/b'/g'/d'/ b/d'/g'/b'/ d''/g'/b'/d''/) | %103
 g''!8va)! z [Ddb] z [B,Gdd'] z | [G,Bgg'] z G, !fermata!z!p! (_A/G/A/G/ | %105
 F) z!ff! [db_a'] z!p! (G/F/G/F/ | _E) z!ff! [Ecgg'] z!p! (F/E/F/E/ | %107
 D) z!f! [G,Bgf'] z [G,cg_e'] z | [G,Bgd'] z [G,Bgg'] z!p! (_A/G/A/G/ | %109
!<(! F/d/b/_a'/) (a'/b/d/F/ G/F/G/F/!<)! |!>(! _E/c/g/g'/) (g'/g/c/E/ F/E/F/E/!>)! | %111
!<(! D/B/g/f'/) (f'/g/B/D/ C/G/_e/)._e'/!<)! |!ff! (G,/B/g/g'/) (g'/g/B/G,/!p!"^dolce" _A/G/A/G/ | %113
 F/d/_b/_a'/) (a'/b/d/F/ _B/_A/G/F/ | _E/_B/g/g'/) (g'/g/B/E/"_cresc." F/G/_A/B/ | %115
 [Cc]/_A/_e/_e'/) (e'/e/A/C/ F/_E/D/C/ | _B,/G/_e/_e'/) (e'/e/G/B,/ _E/D/C/B,/ | %117
!f! _A,/F/d/_b/) (b/d/F/A,/"^sul G" d/c/_B/_A/ | G/_e/_b/_b'/) (b'/b/e/G/ c/_B/_A/G/ | %119
 F/d/_b/_a'/) (a'/b/d/F/ _B/_A/G/F/ | _E/_B/g/g'/) (g'/g/B/E/ F/G/_A/B/ | %121
!p! [Cc]/_A/_e/_e'/) (e'/e/A/C/ D/C/D/C/ | _B,/G/_e/_e'/) (e'/e/G/B,/ _E/_D/C/=B,/ | %123
 C/_A/_e/_e'/) (e'/e/A/C/ D/C/D/C/ | _B,/G/_e/_e'/)"_cresc." (e'/e/G/B,/ _E/D/C/B,/ | %125
!f! A,/_G/_e/c'/) (c'/e/G/A,/ _E/D/C/_B,/ | A,/_G/_e/c'/)"_cresc." (c'/e/G/A,/ G/F/_E/D/ | %127
 C/A/^f/_e'/) (e'/f/A/C/) (_E/c/a/^f'/) | %128
 (a'/c'/_e/^F/) (A/^f/_e'/c''/)!8va(!"_dim." (_e''!8va)!_A,) | %129
!p!!<(! (G,/C/=E/G/ c/e/g/c'/ e'/c'/g'/e'/)!<)! |!>(! (g'/e'/c'/g/ e'/c'/g/e/ c/G/E/C/)!>)! | %131
!<(! (G,/^C/E/A/ ^c/e/a/^c'/ e'/c'/a'/e'/)!<)! | (a'/e'/^c'/a/ e'/c'/a/e/ ^c/A/E/^C/) | %133
 (G,/D/F/A/"_cresc." d/f/a/d'/ f'/d'/a'/f'/) | (a'/f'/d'/a/ f/d/a/f/ d/A/F/D/) | %135
 (G,/D/F/B/ d/f/b/d'/ f'/d'/a'/f'/) | (a'/g'/f'/d'/ b/g/f/d/ B/G/F/D/) | %137
!f!!<(! (C/D/C/B,/ C/E/G/c/ e/g/c'/e'/)!<)! |!p!!<(! (C/D/C/B,/ C/F/_A/c/ f/_a/c'/f'/)!<)! | %139
!p!!<(! (E/F/E/^D/ E/G/c/e/ g/c'/e'/g'/)!<)! |"_cresc." (F/G/F/E/ F/A/c/f/ a/c'/f'/a'/ | %141
 c'') z!f! [CFAc'] z [C_Afb] z | [C=Afc'] z [C_Afc'] z [CAfd'] z | [Gee']2 x4 | %144
 (C/D/C/B,/ C/E/G/c/ e/c/G/E/) |!p!"_cresc." (C/D/C/B,/ C/E/G/c/ e/g/c'/e'/) | %146
 (g'/e'/c'/g/ e/g/c'/e'/ g'/c'/e'/g'/) |!f! c'' z z2 z2 |!ff! [cge']4 z3/2 C/ | !fermata!C6 |] %150
V:2
 x6 | x6 | x6 | x6 | x6 | x6 | G,/B,/D/G/ B/d/g/b/ d'/f'/d'/b/ | x6 | x6 | x6 | x6 | x6 | x6 | x6 | %14
 x6 | x6 | x6 | x6 | x6 | x6 | x6 | x6 | x6 | x6 | x6 | x6 | x6 | [D^f] x D x x2 | x6 | x6 | x6 | %31
 x6 | x6 | x6 | x6 | x6 | x6 | x6 | x6 | x6 | x6 | x6 | x6 | x6 | x6 | x6 | x6 | x6 | x6 | x6 | %50
 x6 | x6 | x6 | x6 | x6 | x6 | x6 | x6 | x6 | x6 | x6 | x6 | x6 | x6 | x6 | x6 | x6 | x6 | x6 | %69
 x6 | x6 | x6 | x6 | x6 | x6 | x6 | x6 | x6 | x6 | x6 | x6 | x6 | x6 | %83
 G,/B,/D/G/ B/d/g/b/ d'/f'/d'/b/ | x6 | x6 | x6 | x6 | x6 | x6 | x6 | x6 | x6 | x6 | x6 | x6 | x6 | %97
 x6 | x6 | x6 | x6 | x6 |!8va(! x6 | x!8va)! x5 | x6 | x6 | x6 | x6 | x6 | x6 | x6 | x6 | x6 | x6 | %114
 x6 | x6 | x6 | x6 | x6 | x6 | x6 | x6 | x6 | x6 | x6 | x6 | x6 | x6 | x4!8va(! x!8va)! x | x6 | %130
 x6 | x6 | x6 | x6 | x6 | x6 | x6 | x6 | x6 | C2 x4 | C2 x4 | x6 | x6 | %143
 (C/D/C/B,/ C/E/G/c/"^dim." e/c/G/E/) | x6 | x6 | x6 | x6 | x6 | x6 |] %150

